X: 23313
T: Leg In The Ditch, The
R: reel
M: 4/4
K: Gmajor
|:GFGA BcdB|cBcd edge|dB~B2 cA~A2|B2dB cA~A2|
BAGA BcdB|cBcd edge|dB~B2 cA~A2|B2dc BAG2:|
|:~g3a gGBd|~g3a geef|gfga bgag|edeg fd~d2|
~g3a gGBd|~g3a bgeg|bgag egfa|1 g2ag fdef:|2 g2ag fdcA||

